src/img/icons/tutorial-modals/os.svg

<?xml version="1.0" encoding="UTF-8"?>
<svg width="41px" height="36px" viewBox="0 0 41 36" version="1.1" xmlns="http://www.w3.org/2000/svg" xmlns:xlink="http://www.w3.org/1999/xlink">
    <!-- Generator: Sketch 48.2 (47327) - http://www.bohemiancoding.com/sketch -->
    <title>OS</title>
    <desc>Created with Sketch.</desc>
    <defs></defs>
    <g id="step_3" stroke="none" stroke-width="1" fill="none" fill-rule="evenodd" transform="translate(-390.000000, -496.000000)">
        <g id="white-bg" transform="translate(330.000000, 102.000000)">
            <g id="left" transform="translate(55.000000, 231.000000)">
                <g id="LINE-4" transform="translate(0.000000, 160.000000)">
                    <g id="OS" transform="translate(5.000000, 3.000000)">
                        <path d="M1,3 L1,33.4945897" id="Line" stroke="#1F5AF6" stroke-width="2" stroke-linecap="square"></path>
                        <path d="M26,3 L26,33.4945897" id="Line" stroke="#1F5AF6" stroke-width="2" stroke-linecap="square"></path>
                        <path d="M1,1.8 L26,1.8" id="Line" stroke="#1F5AF6" stroke-width="2" stroke-linecap="square"></path>
                        <path d="M1,34.6 L26,34.6" id="Line" stroke="#1F5AF6" stroke-width="2" stroke-linecap="square"></path>
                        <rect id="Rectangle-10" fill="#1F5AF6" x="0" y="0.799987793" width="27" height="2"></rect>
                        <rect id="Rectangle-10" fill="#1F5AF6" transform="translate(1.002441, 18.232025) rotate(-270.000000) translate(-1.002441, -18.232025) " x="-14.7655334" y="17.2320251" width="31.5359497" height="2"></rect>
                        <rect id="Rectangle-10" fill="#1F5AF6" transform="translate(26.002441, 18.232025) rotate(-270.000000) translate(-26.002441, -18.232025) " x="10.2344666" y="17.2320251" width="31.5359497" height="2"></rect>
                        <rect id="Rectangle-10" fill="#1F5AF6" x="0" y="33.6000061" width="27" height="2"></rect>
                        <g id="Group-4" transform="translate(26.000000, 4.000000)" fill="#1F5AF6">
                            <g id="disc" transform="translate(0.000000, 1.000000)">
                                <path d="M1,15.5 C1.04641841,15.4993176 1.08110324,15.4983035 1.10405447,15.4969576 C2.02211288,15.4431228 2.75,14.681565 2.75,13.75 C2.75,12.8164659 2.01903245,12.0536584 1.09823022,12.0027105 C1.06571558,12.0009114 1,12 1,12 C1,12 1,12.5833333 1,13.75 L1,15.5 Z" id="Oval"></path>
                                <path d="M9.18929687,11.4144531 C8.696875,9.13320312 7.24609375,7.16078125 5.20898437,6.00304687 C4.92757812,5.84320312 4.56992187,5.94164062 4.41,6.22289062 C4.25007812,6.50429687 4.34851562,6.86195312 4.62984375,7.021875 C6.37726562,8.015 7.62164062,9.70617187 8.04382812,11.6617969 C8.103125,11.9364844 8.34601562,12.1242187 8.61601562,12.1242187 C8.65695312,12.1242187 8.69859375,12.1198437 8.74023437,12.1108594 C9.0565625,12.0425781 9.25757812,11.7307812 9.18929687,11.4144531 Z" id="Shape" fill-rule="nonzero"></path>
                                <path d="M11.6216406,11.6317187 C11.3317969,9.80859375 10.5702344,8.07773437 9.41929687,6.62617187 C8.28414062,5.19460937 6.79710937,4.06585937 5.11890625,3.36203125 C4.82046875,3.236875 4.47710937,3.37734375 4.35195312,3.67578125 C4.22679687,3.97414062 4.36726562,4.31757812 4.66570312,4.44265625 C7.72320312,5.725 9.94515625,8.55015625 10.4644531,11.8157812 C10.5103125,12.1042187 10.7592969,12.3097656 11.0423437,12.3097656 C11.0729687,12.3097656 11.1039062,12.3074219 11.1350781,12.3024219 C11.4546094,12.2516406 11.6725,11.9513281 11.6216406,11.6317187 Z" id="Shape" fill-rule="nonzero"></path>
                            </g>
                            <path d="M-6.51225281,21.5150604 C-4.8959198,12.1760101 -0.0763397217,7.50648499 7.94648743,7.50648499 C15.9693146,7.50648499 20.8217112,12.1733551 22.5036774,21.5070953 L20.4895477,21.5070953 C18.8986664,13.5066884 14.7320099,9.50648499 7.98957825,9.50648499 C1.24714661,9.50648499 -2.92243958,13.5066884 -4.5191803,21.5070953 L-6.51225281,21.5150604 Z" id="Rectangle-10" transform="translate(7.995712, 14.510773) rotate(-270.000000) translate(-7.995712, -14.510773) "></path>
                            <path d="M-2.51006317,17.5092392 C-1.55484263,13.5074488 0.599281311,11.5065536 3.95230865,11.5065536 C7.305336,11.5065536 9.49035899,13.5047938 10.5073776,17.5012741 L8.49008942,17.5012741 C7.75640615,14.8381271 6.25817617,13.5065536 3.99539948,13.5065536 C1.73262278,13.5065536 0.230730693,14.8381271 -0.510276794,17.5012741 L-2.51006317,17.5092392 Z" id="Rectangle-10" transform="translate(3.998657, 14.507896) rotate(-270.000000) translate(-3.998657, -14.507896) "></path>
                        </g>
                        <g id="Group-2" transform="translate(5.600000, 13.000000)" fill="#1F5AF6" fill-rule="nonzero">
                            <path d="M3.38054688,0.127109375 C1.68023438,0.127109375 0.3815625,0.94375 0.3815625,3.11273437 L0.3815625,7.00875 C0.3815625,9.17765625 1.68023438,9.994375 3.38054688,9.994375 C5.0675,9.99429688 6.39296875,9.17757813 6.39296875,7.00875 L6.39296875,3.11273437 C6.39296875,0.94375 5.0675,0.127109375 3.38054688,0.127109375 Z M4.97382813,7.00875 C4.97382813,8.18695312 4.37140625,8.73578125 3.380625,8.73578125 C2.37648438,8.73578125 1.80078125,8.18695312 1.80078125,7.00875 L1.80078125,3.11273437 C1.80078125,1.93453125 2.37648438,1.385625 3.380625,1.385625 C4.37140625,1.385625 4.97382813,1.93453125 4.97382813,3.11273437 L4.97382813,7.00875 Z" id="Shape"></path>
                            <path d="M9.41898438,2.52367187 C9.41898438,1.68015625 10.1152344,1.3053125 11.0925,1.3053125 C12.2305469,1.3053125 12.5785938,1.8140625 12.9400781,1.8140625 C13.3417188,1.8140625 13.5292188,1.31867187 13.5292188,1.05085937 C13.5292188,0.31453125 11.9627344,0.086875 11.0925,0.086875 C9.66,0.086875 7.99984375,0.676015625 7.99984375,2.65742187 C7.99984375,5.87070312 12.3510156,4.946875 12.3510156,7.31664062 C12.3510156,8.280625 11.6280469,8.73578125 10.6640625,8.73578125 C9.17796875,8.73578125 8.85664063,7.678125 8.3746875,7.678125 C8.03992188,7.678125 7.75882812,8.11992187 7.75882812,8.44132812 C7.75882812,9.11070312 8.9771875,10.0211719 10.7176563,10.0211719 C12.4849219,10.0211719 13.7702344,9.08398437 13.7702344,7.16945312 C13.7702344,3.608125 9.41898438,4.50507812 9.41898438,2.52367187 Z" id="Shape"></path>
                        </g>
                    </g>
                </g>
            </g>
        </g>
    </g>
</svg>

<?xml version="1.0" encoding="UTF-8" standalone="no"?>
<svg
   xmlns:dc="http://purl.org/dc/elements/1.1/"
   xmlns:cc="http://creativecommons.org/ns#"
   xmlns:rdf="http://www.w3.org/1999/02/22-rdf-syntax-ns#"
   xmlns:svg="http://www.w3.org/2000/svg"
   xmlns="http://www.w3.org/2000/svg"
   xmlns:sodipodi="http://sodipodi.sourceforge.net/DTD/sodipodi-0.dtd"
   xmlns:inkscape="http://www.inkscape.org/namespaces/inkscape"
   width="41px"
   height="36px"
   viewBox="0 0 41 36"
   version="1.1"
   id="svg42"
   sodipodi:docname="os.svg"
   inkscape:version="0.92.3 (2405546, 2018-03-11)">
  <metadata
     id="metadata46">
    <rdf:RDF>
      <cc:Work
         rdf:about="">
        <dc:format>image/svg+xml</dc:format>
        <dc:type
           rdf:resource="http://purl.org/dc/dcmitype/StillImage" />
      </cc:Work>
    </rdf:RDF>
  </metadata>
  <sodipodi:namedview
     pagecolor="#ffffff"
     bordercolor="#666666"
     borderopacity="1"
     objecttolerance="10"
     gridtolerance="10"
     guidetolerance="10"
     inkscape:pageopacity="0"
     inkscape:pageshadow="2"
     inkscape:window-width="1366"
     inkscape:window-height="705"
     id="namedview44"
     showgrid="false"
     inkscape:zoom="6.5555556"
     inkscape:cx="29.5"
     inkscape:cy="18"
     inkscape:window-x="0"
     inkscape:window-y="354"
     inkscape:window-maximized="1"
     inkscape:current-layer="LINE-4" />
  <!-- Generator: Sketch 48.2 (47327) - http://www.bohemiancoding.com/sketch -->
  <title
     id="title2">OS</title>
  <desc
     id="desc4">Created with Sketch.</desc>
  <defs
     id="defs6" />
  <g
     id="step_3"
     stroke="none"
     stroke-width="1"
     fill="none"
     fill-rule="evenodd"
     transform="translate(-390.000000, -496.000000)">
    <g
       id="white-bg"
       transform="translate(330.000000, 102.000000)">
      <g
         id="left"
         transform="translate(55.000000, 231.000000)">
        <g
           id="LINE-4"
           transform="translate(0.000000, 160.000000)">
          <path
             style="stroke:#5a81ea;stroke-width:2;stroke-linecap:square"
             inkscape:connector-curvature="0"
             id="Line"
             d="M 6,6 V 36.49459" />
          <path
             style="stroke:#5a81ea;stroke-width:2;stroke-linecap:square"
             inkscape:connector-curvature="0"
             id="path9"
             d="M 31,6 V 36.49459" />
          <path
             style="stroke:#5a81ea;stroke-width:2;stroke-linecap:square"
             inkscape:connector-curvature="0"
             id="path11"
             d="M 6,4.8 H 31" />
          <path
             style="stroke:#5a81ea;stroke-width:2;stroke-linecap:square"
             inkscape:connector-curvature="0"
             id="path13"
             d="M 6,37.6 H 31" />
          <rect
             style="fill:#81d742;fill-opacity:1"
             height="2"
             width="27"
             y="3.7999878"
             x="5"
             id="Rectangle-10" />
          <rect
             style="fill:#81d742;fill-opacity:1"
             height="2"
             width="31.53595"
             y="-7.0024409"
             x="5.4640508"
             transform="rotate(90)"
             id="rect16" />
          <rect
             style="fill:#81d742;fill-opacity:1"
             height="2"
             width="31.53595"
             y="-32.002441"
             x="5.4640508"
             transform="rotate(90)"
             id="rect18" />
          <rect
             style="fill:#81d742;fill-opacity:1"
             height="2"
             width="27"
             y="36.600006"
             x="5"
             id="rect20" />
          <g
             style="fill:#81d742;fill-opacity:1"
             transform="translate(31,7)"
             id="Group-4">
            <g
               transform="translate(0,1)"
               id="disc"
               style="fill:#81d742;fill-opacity:1">
              <path
                 inkscape:connector-curvature="0"
                 id="Oval"
                 d="M 1,15.5 C 1.046418,15.499318 1.081103,15.4983 1.1040545,15.497 2.0221129,15.443123 2.75,14.681565 2.75,13.75 2.75,12.816466 2.0190325,12.053658 1.0982302,12.00271 1.0657156,12.000911 1,12 1,12 c 0,0 0,0.583333 0,1.75 z"
                 style="fill:#81d742;fill-opacity:1" />
              <path
                 style="fill-rule:nonzero;fill:#81d742;fill-opacity:1"
                 inkscape:connector-curvature="0"
                 id="Shape"
                 d="M 9.1892969,11.414453 C 8.696875,9.1332031 7.2460937,7.1607813 5.2089844,6.0030469 4.9275781,5.8432031 4.5699219,5.9416406 4.41,6.2228906 4.2500781,6.5042969 4.3485156,6.8619531 4.6298437,7.021875 6.3772656,8.015 7.6216406,9.7061719 8.0438281,11.661797 c 0.059297,0.274687 0.3021875,0.462422 0.5721875,0.462422 0.040938,0 0.082578,-0.0044 0.1242188,-0.01336 0.3163281,-0.06828 0.5173437,-0.380078 0.4490625,-0.696406 z" />
              <path
                 style="fill-rule:nonzero;fill:#81d742;fill-opacity:1"
                 inkscape:connector-curvature="0"
                 id="path24"
                 d="M 11.621641,11.631719 C 11.331797,9.8085938 10.570234,8.0777344 9.4192969,6.6261719 8.2841406,5.1946094 6.7971094,4.0658594 5.1189062,3.3620312 4.8204687,3.236875 4.4771094,3.3773438 4.3519531,3.6757813 c -0.1251562,0.2983593 0.015312,0.6417968 0.31375,0.7668749 3.0575,1.2823438 5.2794532,4.1075001 5.7987499,7.3731248 0.04586,0.288438 0.294844,0.493985 0.577891,0.493985 0.03063,0 0.06156,-0.0023 0.09273,-0.0073 0.319531,-0.05078 0.537422,-0.351094 0.486563,-0.670703 z" />
            </g>
            <path
               inkscape:connector-curvature="0"
               transform="rotate(90,7.995712,14.510773)"
               id="path27"
               d="m -6.5122528,21.51506 c 1.616333,-9.33905 6.43591308,-14.008575 14.4587402,-14.008575 8.0228276,0 12.8752236,4.66687 14.5571896,14.00061 H 20.489548 C 18.898666,13.506688 14.73201,9.506485 7.9895782,9.506485 c -6.7424316,0 -10.9120178,4.000203 -12.5087585,12.00061 z"
               style="fill:#81d742;fill-opacity:1" />
            <path
               inkscape:connector-curvature="0"
               transform="rotate(90,3.998657,14.507896)"
               id="path29"
               d="m -2.5100632,17.509239 c 0.9552206,-4.00179 3.10934451,-6.002685 6.4623719,-6.002685 3.3530273,0 5.5380503,1.99824 6.5550693,5.99472 H 8.4900894 c -0.7336833,-2.663147 -2.2319132,-3.99472 -4.4946899,-3.99472 -2.2627767,0 -3.76466881,1.331573 -4.50567629,3.99472 z"
               style="fill:#81d742;fill-opacity:1" />
          </g>
          <g
             style="fill:#81d742;fill-rule:nonzero;fill-opacity:1"
             transform="translate(10.6,16)"
             id="Group-2">
            <path
               inkscape:connector-curvature="0"
               id="path32"
               d="m 3.3805469,0.12710938 c -1.7003125,0 -2.9989844,0.81664062 -2.9989844,2.98562502 V 7.00875 c 0,2.1689063 1.2986719,2.985625 2.9989844,2.985625 C 5.0675,9.9942969 6.3929687,9.1775781 6.3929687,7.00875 V 3.1127344 C 6.3929687,0.94375 5.0675,0.12710938 3.3805469,0.12710938 Z M 4.9738281,7.00875 c 0,1.1782031 -0.6024219,1.7270313 -1.5932031,1.7270313 -1.0041406,0 -1.5798438,-0.5488282 -1.5798438,-1.7270313 V 3.1127344 c 0,-1.1782032 0.5757032,-1.7271094 1.5798438,-1.7271094 0.9907812,0 1.5932031,0.5489062 1.5932031,1.7271094 z"
               style="fill:#81d742;fill-opacity:1" />
            <path
               inkscape:connector-curvature="0"
               id="path34"
               d="m 9.4189844,2.5236719 c 0,-0.8435157 0.6962496,-1.2183594 1.6735156,-1.2183594 1.138047,0 1.486094,0.50875 1.847578,0.50875 0.401641,0 0.589141,-0.4953906 0.589141,-0.7632031 0,-0.73632815 -1.566485,-0.9639844 -2.436719,-0.9639844 -1.4325,0 -3.0926563,0.58914063 -3.0926563,2.5705469 0,3.2132812 4.3511723,2.2894531 4.3511723,4.6592187 0,0.9639844 -0.722969,1.4191407 -1.686953,1.4191407 -1.4860942,0 -1.8074224,-1.0576563 -2.2893755,-1.0576563 -0.3347656,0 -0.6158594,0.4417969 -0.6158594,0.7632031 0,0.669375 1.2183594,1.5798439 2.9588279,1.5798439 1.767266,0 3.052578,-0.9371876 3.052578,-2.8517189 0,-3.5613281 -4.3512496,-2.664375 -4.3512496,-4.6457812 z"
               style="fill:#81d742;fill-opacity:1" />
          </g>
        </g>
      </g>
    </g>
  </g>
</svg>
